X: 1
T: Pols efter Axel Axelsson, \"Osttorp
T: Sl\"angp. fr S\"odermanland
O: Magnus Gustafsson
N: Aug 1993 workshop
Z: John Chambers <jc@trillian.mit.edu>
M: 3/4
L: 1/16
K: A
|: "A"(AB)cd e3(a g2)a2 \
| "D"(fg)Tfe (fg)af "E7"f2e2 \
| "A"(cA)ce (ag)ae "(D)"(dc)BA \
|1,3 "E7"(~cB)AG "A"A2E2 C2A,2 \
:|2,4 "E7"(cB)AG (G2A2) "A"A4 :|
|: "A"(AE)(Ac) (AE)(Ac) "Bm"d2B2 \
| "E7"(BG)(Bd) (BG)(Bd) "A"d2c2 \
| "A"(AE)(Ac) (AE)(Ac) "Bm"d2B2 \
| "E7"(BG)(Bd) (BG)(Bd) "A"d2c2 |
| "A"(AB)cd e3(a g2)a2 \
| "D"(fg)Tfe (fg)af "E7"f2e2 \
| "A"(cA)ce (ag)ae "(D)"(dc)BA \
| "E7"(cB)AG (G2A2) "A"A4 :|

%%sep 1 1 500

